dist/icons/settings.svg

<svg width="20" height="20" viewBox="0 0 20 20" fill="none" xmlns="http://www.w3.org/2000/svg">
<path d="M11.25 2.50002L12.5 2.50003L12.5 1.25002H11.25V2.50002Z" fill="white"/>
<path d="M8.75 2.50002L7.49999 2.50003L7.5 1.25002H8.75V2.50002Z" fill="white"/>
<path d="M17.5 8.75H18.75V7.5L17.5 7.50003L17.5 8.75Z" fill="white"/>
<path d="M2.5 8.75H1.25V7.5H2.5V8.75Z" fill="white"/>
<path d="M17.5 12.5H18.75L18.75 11.25L17.5 11.25V12.5Z" fill="white"/>
<path d="M2.5 12.5H1.25L1.25 11.25L2.5 11.25V12.5Z" fill="white"/>
<path d="M11.25 18.75L12.5 18.75L12.5 17.5L11.25 17.5L11.25 18.75Z" fill="white"/>
<path d="M8.75 18.75L7.5 18.75L7.49999 17.5L8.75 17.5L8.75 18.75Z" fill="white"/>
<path d="M13.75 7.5H12.5V12.5H13.75V7.5Z" fill="white"/>
<path d="M12.5 7.5L12.5 6.25003H7.5L7.49999 7.5H12.5Z" fill="white"/>
<path d="M7.49999 7.5H6.24999V12.5H7.49999V7.5Z" fill="white"/>
<path d="M12.5 13.75L12.5 12.5H7.49999L7.5 13.75H12.5Z" fill="white"/>
<path d="M3.75 16.25L3.75 17.5H7.49999V16.25L3.75 16.25Z" fill="white"/>
<path d="M2.5 16.25H3.75V12.5L2.5 12.5L2.5 16.25Z" fill="white"/>
<path d="M1.25 8.75L0 8.75002V11.25H1.25L1.25 8.75Z" fill="white"/>
<path d="M2.5 7.5L3.75 7.50003L3.75 3.75003L2.5 3.75L2.5 7.5Z" fill="white"/>
<path d="M7.49999 3.75003V2.50003H3.75V3.75003H7.49999Z" fill="white"/>
<path d="M11.25 1.25002L11.25 0H8.75L8.75 1.25002H11.25Z" fill="white"/>
<path d="M12.5 2.50003V3.75003H16.25V2.50003H12.5Z" fill="white"/>
<path d="M16.25 7.50003H17.5V3.75L16.25 3.75003L16.25 7.50003Z" fill="white"/>
<path d="M20 8.75002L18.75 8.75L18.75 11.25H20V8.75002Z" fill="white"/>
<path d="M16.25 16.25H17.5L17.5 12.5L16.25 12.5V16.25Z" fill="white"/>
<path d="M16.25 17.5L16.25 16.25L12.5 16.25V17.5H16.25Z" fill="white"/>
<path d="M11.25 20V18.75H8.75V20H11.25Z" fill="white"/>
</svg>

<svg width="20" height="20" fill="none" xmlns="http://www.w3.org/2000/svg"><path d="M11.25 2.5h1.25V1.25h-1.25V2.5Zm-2.5 0H7.5V1.25h1.25V2.5Zm8.75 6.25h1.25V7.5H17.5v1.25Zm-15 0H1.25V7.5H2.5v1.25Zm15 3.75h1.25v-1.25H17.5v1.25Zm-15 0H1.25v-1.25H2.5v1.25Zm8.75 6.25h1.25V17.5h-1.25v1.25Zm-2.5 0H7.5V17.5h1.25v1.25Zm5-11.25H12.5v5h1.25v-5Zm-1.25 0V6.25h-5V7.5h5Zm-5 0H6.25v5H7.5v-5Zm5 6.25V12.5h-5v1.25h5Zm-8.75 2.5v1.25H7.5v-1.25H3.75Zm-1.25 0h1.25V12.5H2.5v3.75Zm-1.25-7.5H0v2.5h1.25v-2.5ZM2.5 7.5h1.25V3.75H2.5V7.5Zm5-3.75V2.5H3.75v1.25H7.5Zm3.75-2.5V0h-2.5v1.25h2.5ZM12.5 2.5v1.25h3.75V2.5H12.5Zm3.75 5h1.25V3.75h-1.25V7.5ZM20 8.75h-1.25v2.5H20v-2.5Zm-3.75 7.5h1.25V12.5h-1.25v3.75Zm0 1.25v-1.25H12.5v1.25h3.75Zm-5 2.5v-1.25h-2.5V20h2.5Z" fill="#fff"/></svg>
